X:1
T:Title
%%score ( 1 2 ) { ( 3 5 ) | 4 }
L:1/8
Q:1/4=90
M:6/8
K:D
V:1 treble nm="Grand Piano, Soprano"
V:2 treble 
V:3 bass nm="Choir Pad, My Father Knows My Need"
V:5 bass 
V:4 bass 
V:1
 FDE G2 =F | F3- F3/2 z/ F | F2 D C E2 | .D3 DEF | G2 c B2 G | F3 F2 D | F2 G E F2 | %7
w: By~Charles~Hutchinson~Gabriel * * * *|||||||
[M:4/4] z4 z2 z c- | c4 z2 z A- | A4 z2 z F- | F6 z2 | z8 |] %12
w: |||||
V:2
 x6 | x6 | x6 | x6 | x6 | x6 | x6 |[M:4/4] D4 FA .d2 | GGGG [GB][GA][GB]F- | F G2 F DE .G2 | %10
 DDB,C- C [A,E]2 [A,D]- | [A,D]8 |] %12
V:3
 A,F,G, B,2 ^G, | A,6 | A,2 F, E, G,2 | .F,3 F,G,A, | B,2[K:treble] E D2 B, | A,3 D2[K:bass] F, | %6
 A,2 B, G, A,2 |[M:4/4] F,4 z4 | z8[K:treble] | z4[K:bass] z2 z A,- | A,6 z2 | z8 |] %12
V:4
 D,6- | D,A,,F,, D,,2 A, | A,,6 | .D,3 z3 | G,,6 | D,6 | A,,6 |[M:4/4] D,A,,F,,D,, z4 | %8
 A,,A,,A,,A, A,A,A,D,- | D, D,2 D, z4 | z4 z A,,2 D,- | D,8 |] %12
V:5
 x6 | x6 | x6 | x6 | x2[K:treble] x4 | x5[K:bass] x | x6 |[M:4/4] x8 | A,A,A,[K:treble]E DCCD- | %9
 D[K:bass] B,2 D F,G, .B,2 | A,,A,,A,,A,,- A,, G,2 F,- | F,8 |] %12

